svgs/duotone/circle-ampersand.svg

<svg xmlns="http://www.w3.org/2000/svg" viewBox="0 0 512 512"><!--! Font Awesome Pro 6.3.0 by @fontawesome - https://fontawesome.com License - https://fontawesome.com/license (Commercial License) Copyright 2023 Fonticons, Inc. --><defs><style>.fa-secondary{opacity:.4}</style></defs><path class="fa-primary" d="M331.5 315.3l28.15-41.31c7.469-10.95 4.625-25.89-6.312-33.34c-10.97-7.484-25.88-4.609-33.38 6.312l-21.76 31.93l-29.74-32.53l19.69-15.89c13.59-11 21.41-27.36 21.41-44.86C309.6 153.9 283.7 128 251.9 128H228.8C197 128 171.1 153.9 171.1 185.7c0 16.36 6.062 32.03 17.12 44.14l10.34 11.33L168.8 265.2C153.1 277.9 144 296.9 144 317.2C144 354 173.1 384 210.8 384h32.47c23.41 0 45.38-10.41 60.16-28.19l18.62 20.38C326.8 381.4 333.3 384 339.8 384c5.781 0 11.59-2.078 16.19-6.281c9.781-8.953 10.47-24.12 1.531-33.91L331.5 315.3zM228.8 176h23.12c5.312 0 9.656 4.328 9.656 9.656c0 2.938-1.312 5.688-3.594 7.516L236 210.9L223.7 197.4C220.8 194.2 219.1 190 219.1 185.7C219.1 180.3 223.5 176 228.8 176zM268.3 322.8C262.7 331.1 253.3 336 243.3 336H210.8C200.5 336 192 327.5 192 317.2c0-5.719 2.531-11.06 7-14.64L231.1 276.6l39.37 43.08L268.3 322.8z"/><path class="fa-secondary" d="M199 302.5C194.5 306.1 192 311.4 192 317.2C192 327.5 200.5 336 210.8 336h32.47c10.03 0 19.38-4.938 25-13.2l2.117-3.105L231.1 276.6L199 302.5zM236 210.9l21.94-17.73c2.281-1.828 3.594-4.578 3.594-7.516C261.6 180.3 257.2 176 251.9 176H228.8c-5.312 0-9.656 4.328-9.656 9.656c0 4.359 1.625 8.547 4.562 11.78L236 210.9zM256 0C114.6 0 0 114.6 0 256s114.6 256 256 256s256-114.6 256-256S397.4 0 256 0zM356 377.7C351.4 381.9 345.6 384 339.8 384c-6.5 0-12.97-2.625-17.72-7.812l-18.62-20.38C288.7 373.6 266.7 384 243.3 384H210.8C173.1 384 144 354 144 317.2c0-20.3 9.062-39.25 24.84-51.98l29.75-24.05L188.3 229.8c-11.06-12.11-17.12-27.78-17.12-44.14C171.1 153.9 197 128 228.8 128h23.12c31.78 0 57.66 25.86 57.66 57.66c0 17.5-7.812 33.86-21.41 44.86l-19.69 15.89l29.74 32.53L319.1 247c7.5-10.92 22.41-13.8 33.38-6.312c10.94 7.453 13.78 22.39 6.312 33.34L331.5 315.3l26.03 28.47C366.5 353.6 365.8 368.8 356 377.7z"/></svg>

<svg xmlns="http://www.w3.org/2000/svg" viewBox="0 0 512 512"><!-- Font Awesome Pro 6.0.0-alpha2 by @fontawesome - https://fontawesome.com License - https://fontawesome.com/license (Commercial License) --><defs><style>.fa-secondary{opacity:.4}</style></defs><path d="M256 16C123.451 16 16 123.451 16 256S123.451 496 256 496S496 388.549 496 256S388.549 16 256 16ZM356 377.719C351.406 381.922 345.594 384 339.812 384C333.312 384 326.844 381.375 322.094 376.188L303.469 355.812C288.688 373.594 266.719 384 243.312 384H210.844C174 384 144 354.016 144 317.156C144 296.859 153.062 277.906 168.844 265.172L198.594 241.125L188.25 229.797C177.188 217.687 171.125 202.016 171.125 185.656C171.125 153.859 197 128 228.781 128H251.906C283.688 128 309.562 153.859 309.562 185.656C309.562 203.156 301.75 219.516 288.156 230.516L268.469 246.406L298.207 278.932L319.969 247C327.469 236.078 342.375 233.203 353.344 240.688C364.281 248.141 367.125 263.078 359.656 274.031L331.502 315.344L357.531 343.812C366.469 353.594 365.781 368.766 356 377.719ZM236.031 210.906L257.969 193.172C260.25 191.344 261.563 188.594 261.563 185.656C261.562 180.328 257.219 176 251.906 176H228.781C223.469 176 219.125 180.328 219.125 185.656C219.125 190.016 220.75 194.203 223.688 197.438L236.031 210.906ZM199 302.516C194.531 306.094 192 311.438 192 317.156C192 327.547 200.469 336 210.844 336H243.312C253.344 336 262.688 331.062 268.312 322.797L270.43 319.691L231.062 276.609L199 302.516Z" class="fa-secondary"/><path d="M331.502 315.344L359.656 274.031C367.125 263.078 364.281 248.141 353.344 240.688C342.375 233.203 327.469 236.078 319.969 247L298.207 278.932L268.469 246.406L288.156 230.516C301.75 219.516 309.562 203.156 309.562 185.656C309.562 153.859 283.688 128 251.906 128H228.781C197 128 171.125 153.859 171.125 185.656C171.125 202.016 177.187 217.688 188.25 229.797L198.594 241.125L168.844 265.172C153.062 277.906 144 296.859 144 317.156C144 354.016 174 384 210.844 384H243.312C266.719 384 288.688 373.594 303.469 355.812L322.094 376.188C326.844 381.375 333.312 384 339.812 384C345.594 384 351.406 381.922 356 377.719C365.781 368.766 366.469 353.594 357.531 343.812L331.502 315.344ZM228.781 176H251.906C257.219 176 261.562 180.328 261.562 185.656C261.562 188.594 260.25 191.344 257.969 193.172L236.031 210.906L223.688 197.438C220.75 194.203 219.125 190.016 219.125 185.656C219.125 180.328 223.469 176 228.781 176ZM268.312 322.797C262.688 331.062 253.344 336 243.312 336H210.844C200.469 336 192 327.547 192 317.156C192 311.438 194.531 306.094 199 302.516L231.062 276.609L270.43 319.691L268.312 322.797Z" class="fa-primary"/></svg>
